house_icon.svg

<?xml version="1.0" encoding="iso-8859-1"?>
<!-- Generator: Adobe Illustrator 16.0.0, SVG Export Plug-In . SVG Version: 6.00 Build 0)  -->
<!DOCTYPE svg PUBLIC "-//W3C//DTD SVG 1.1//EN" "http://www.w3.org/Graphics/SVG/1.1/DTD/svg11.dtd">
<svg version="1.1" id="Capa_1" xmlns="http://www.w3.org/2000/svg" xmlns:xlink="http://www.w3.org/1999/xlink" x="0px" y="0px"
	 width="122.386px" height="122.386px" viewBox="0 0 122.386 122.386" style="enable-background:new 0 0 122.386 122.386;"
	 xml:space="preserve">
<g>
	<g>
		<path d="M86.51,72.041v39.673H69.357V71.469H39.686v40.244H21.867V55.126l29.649-20.388c0.128-5.292,1.379-10.31,3.54-14.817
			l-0.438-0.308l-3.064,2.106l-24.043,16.46V29.8H14.03v17.606L0,57.011l6.051,8.836l5.106-3.496v49.362v9.956h86.042l0.02-50.793
			c-2.963,0.781-6.07,1.199-9.273,1.199C87.463,72.078,86.986,72.06,86.51,72.041z"/>
		<path d="M89.271,0.716c-18.287,0-33.113,14.826-33.113,33.114c0,18.289,14.826,33.114,33.113,33.114
			c18.289,0,33.114-14.826,33.114-33.115C122.386,15.542,107.561,0.716,89.271,0.716z M93.346,56.138v7.368h-8.408v-6.79
			c-4.054-0.326-8.107-1.534-10.604-3.2L73.5,52.961l2.633-9.162l1.521,0.898c3.078,1.814,6.762,2.857,10.104,2.857
			c3.626,0,5.971-1.611,5.971-4.103c0-1.705-0.807-3.576-6.646-5.707c-6.362-2.303-12.874-5.73-12.874-13.675
			c0-6.397,4.239-11.249,11.146-12.879V4.155h8.407v6.506c3.265,0.245,6.088,1.003,8.796,2.359l1.023,0.512l-2.637,8.979
			l-1.828-0.838c-1.639-0.766-4.389-2.047-8.452-2.047c-3.259,0-5.205,1.298-5.205,3.478c0,1.897,1.825,3.238,7.516,5.514
			c8.451,3.17,12.073,7.383,12.073,14.073C105.046,49.367,100.492,54.543,93.346,56.138z"/>
	</g>
</g>
<g>
</g>
<g>
</g>
<g>
</g>
<g>
</g>
<g>
</g>
<g>
</g>
<g>
</g>
<g>
</g>
<g>
</g>
<g>
</g>
<g>
</g>
<g>
</g>
<g>
</g>
<g>
</g>
<g>
</g>
</svg>

<svg width="123" height="123" viewBox="0 0 123 123" fill="none" xmlns="http://www.w3.org/2000/svg">
<g clip-path="url(#clip0_1033_2)">
<path d="M86.51 72.041V111.714H69.357V71.469H39.686V111.713H21.867V55.126L51.516 34.738C51.644 29.446 52.895 24.428 55.056 19.921L54.618 19.613L51.554 21.719L27.511 38.179V29.8H14.03V47.406L0 57.011L6.051 65.847L11.157 62.351V111.713V121.669H97.199L97.219 70.876C94.256 71.657 91.149 72.075 87.946 72.075C87.463 72.078 86.986 72.06 86.51 72.041Z" fill="#206F0C"/>
<path d="M89.271 0.716003C70.984 0.716003 56.158 15.542 56.158 33.83C56.158 52.119 70.984 66.944 89.271 66.944C107.56 66.944 122.385 52.118 122.385 33.829C122.386 15.542 107.561 0.716003 89.271 0.716003ZM93.346 56.138V63.506H84.938V56.716C80.884 56.39 76.831 55.182 74.334 53.516L73.5 52.961L76.133 43.799L77.654 44.697C80.732 46.511 84.416 47.554 87.758 47.554C91.384 47.554 93.729 45.943 93.729 43.451C93.729 41.746 92.922 39.875 87.083 37.744C80.721 35.441 74.209 32.014 74.209 24.069C74.209 17.672 78.448 12.82 85.355 11.19V4.155H93.762V10.661C97.027 10.906 99.85 11.664 102.558 13.02L103.581 13.532L100.944 22.511L99.116 21.673C97.477 20.907 94.727 19.626 90.664 19.626C87.405 19.626 85.459 20.924 85.459 23.104C85.459 25.001 87.284 26.342 92.975 28.618C101.426 31.788 105.048 36.001 105.048 42.691C105.046 49.367 100.492 54.543 93.346 56.138Z" fill="#206F0C"/>
</g>
<defs>
<clipPath id="clip0_1033_2">
<rect width="122.386" height="122.386" fill="white"/>
</clipPath>
</defs>
</svg>
